X:1
T:Title
%%score { 1 | 2 }
L:1/8
Q:1/4=118
M:4/4
K:Bb
V:1 treble nm="Grand Piano"
V:2 bass 
V:1
 [df]4 [_d=e]2 [=df]2 | B3 [Bc] [Bd]4 | [Be]4 [Bd]2 B2 | [Bd]3 [Ac] [Ac]4 | B4 [Be]2 [eg]2 | %5
w: Isaac~Baker~Woodbury * *|||||
 [df]3 [ce] [Bd]2 [B,B]2 | [Bd]3 [Bd] [Ac]2 [ce]2 | [Bd]6 z2 | [eg]8 | [df]4 z2 B2 | %10
w: |||||
 [Bd]3 [Bd] [B,df]2 [ce]2[Q:1/4=114][Q:1/4=111][Q:1/4=107][Q:1/4=103][Q:1/4=100][Q:1/4=96][Q:1/4=92] | %11
w: |
 [Bd]8 |] %12
w: |
V:2
 [B,,B,]4 [B,,G,]2 [B,,F,]2 | [B,,D,]3 [B,,E,] [B,,F,]4 | [E,G,]4 [B,,F,]2 [D,F,]2 | F,3 F, F,4 | %4
 G,4 [E,G,]2 [E,B,]2 | B,3 B, B,2 G,2 | [F,B,]3 F, F,2 F,2 | [B,,F,]6 z2 | [E,G,]8 | %9
 [B,,B,]4 z2 [G,B,]2 | [F,B,]3 [F,B,] [F,,F,]2 [F,,F,]2 | [B,,F,]8 |] %12

